svg/sky news on win.svg

<?xml version="1.0" encoding="UTF-8" standalone="no"?>
<svg
   xmlns:dc="http://purl.org/dc/elements/1.1/"
   xmlns:cc="http://creativecommons.org/ns#"
   xmlns:rdf="http://www.w3.org/1999/02/22-rdf-syntax-ns#"
   xmlns:svg="http://www.w3.org/2000/svg"
   xmlns="http://www.w3.org/2000/svg"
   xmlns:sodipodi="http://sodipodi.sourceforge.net/DTD/sodipodi-0.dtd"
   xmlns:inkscape="http://www.inkscape.org/namespaces/inkscape"
   id="svg4"
   version="1.1"
   width="512"
   height="512"
   sodipodi:docname="sky news on win.svg"
   inkscape:version="0.92.2 5c3e80d, 2017-08-06">
  <sodipodi:namedview
     pagecolor="#ffffff"
     bordercolor="#666666"
     borderopacity="1"
     objecttolerance="10"
     gridtolerance="10"
     guidetolerance="10"
     inkscape:pageopacity="0"
     inkscape:pageshadow="2"
     inkscape:window-width="1920"
     inkscape:window-height="1015"
     id="namedview21"
     showgrid="false"
     inkscape:zoom="1.84375"
     inkscape:cx="290.68013"
     inkscape:cy="263.27183"
     inkscape:window-x="0"
     inkscape:window-y="0"
     inkscape:window-maximized="1"
     inkscape:current-layer="svg4" />
  <metadata
     id="metadata10">
    <rdf:RDF>
      <cc:Work
         rdf:about="">
        <dc:format>image/svg+xml</dc:format>
        <dc:type
           rdf:resource="http://purl.org/dc/dcmitype/StillImage" />
        <dc:title />
      </cc:Work>
    </rdf:RDF>
  </metadata>
  <defs
     id="defs8" />
  <path
     style="opacity:1;fill:#000000;fill-opacity:1;stroke:#000000;stroke-width:2;stroke-linecap:round;stroke-linejoin:round;stroke-miterlimit:4;stroke-dasharray:none;stroke-opacity:1"
     d="M 209.19531 158.125 L 209.19531 280.18555 L 488.25195 280.18555 C 495.34299 280.18555 501.05273 274.48441 501.05273 267.40234 L 501.05273 170.9082 C 501.05273 163.82612 495.34299 158.125 488.25195 158.125 L 209.19531 158.125 z M 461.18555 182.0293 C 472.53308 181.75849 483.12109 187.08984 483.12109 187.08984 L 479.27148 198.44531 C 479.27148 198.44531 471.42987 195.07784 464.36719 194.70117 C 459.38566 194.43549 451.40724 195.43192 450.45312 200.32227 C 448.31933 211.25919 464.64137 210.73367 473.82031 215.79297 C 477.24651 217.68144 480.21035 219.45701 483.06055 223.36328 C 485.32307 226.46416 486.00792 232.38758 485.36914 236.56445 C 483.06959 251.60077 468.97291 255.8034 459.00586 255.43164 C 452.30725 255.18178 445.58089 255.114 436.6543 250.30859 L 439.42969 237.52148 C 439.42969 237.52148 446.25539 242.03732 457.69727 242.69727 C 463.10398 243.00912 471.63426 242.52942 472.00781 234.875 C 472.27935 229.31103 464.21732 227.14754 456.42578 224.21875 C 451.94771 222.53547 447.45302 220.55804 444.35352 218.11719 C 437.70139 212.87864 435.95 203.26007 438.08594 195.85156 C 439.17637 192.06942 441.13087 189.23324 443.91211 186.87305 C 447.26844 184.02484 452.38184 182.23941 461.18555 182.0293 z M 224.94336 183.86719 L 236.66992 183.86719 L 270.73242 227.58008 L 270.73242 183.86719 L 283.78906 183.86719 L 283.78906 253.97461 L 272.38477 253.97461 L 238.02148 210.46094 L 238.02148 253.97461 L 224.94336 253.97461 L 224.94336 183.86719 z M 293.42969 183.86719 L 340.17969 183.86719 L 340.17969 195.2168 L 308.19531 195.2168 L 308.19531 211.66602 L 334.41406 211.66602 L 334.41406 224.61719 L 308.19531 224.61719 L 308.19531 242.57812 L 340.1875 242.57812 L 340.1875 253.97461 L 293.42969 253.97461 L 293.42969 183.86719 z M 347.31641 183.86719 L 360.81836 183.86719 C 360.81836 183.86719 363.01138 201.56182 364.53516 210.3418 C 366.17869 219.81186 370.38281 238.57812 370.38281 238.57812 L 381.77539 186.33984 L 397.95117 186.33984 L 409.625 238.99805 C 409.625 238.99805 413.94674 218.02297 415.76953 207.47266 C 417.12424 199.63165 419.32812 183.86719 419.32812 183.86719 L 432.56641 183.86719 C 432.56641 183.86719 429.37846 205.6663 427.13672 216.41992 C 424.49685 229.08337 417.85742 253.97461 417.85742 253.97461 L 401.32617 253.97461 C 401.32617 253.97461 397.19382 237.09063 395.32422 228.60352 C 393.39143 219.82955 389.93359 202.19531 389.93359 202.19531 C 389.93359 202.19531 386.50467 220.19884 384.50586 229.14062 C 382.64624 237.45976 378.40039 253.97461 378.40039 253.97461 L 361.94531 253.97461 C 361.94531 253.97461 354.97592 226.32747 352.15039 212.35938 C 350.24049 202.91772 347.31641 183.86719 347.31641 183.86719 z "
     id="path933" />
  <path
     inkscape:connector-curvature="0"
     id="rect928"
     d="M 209.19553,280.18628 V 158.12443 H 23.746152 c -7.09104,0 -12.798497,5.70162 -12.798497,12.7837 v 96.49446 c 0,7.08207 5.707457,12.78369 12.798497,12.78369 z"
     style="opacity:1;fill:none;fill-opacity:1;stroke:#000000;stroke-width:2;stroke-linecap:round;stroke-linejoin:round;stroke-miterlimit:4;stroke-dasharray:none;stroke-opacity:1" />
  <path
     inkscape:connector-curvature="0"
     id="SVGID_1_"
     d="m 47.15675,189.27003 c 2.765112,-0.30096 5.706886,-0.4255 8.637212,-0.43588 7.482749,0 14.95614,0.78873 19.664419,1.35954 0.218223,1.12083 0.353309,2.17941 0.353309,3.34176 0,8.68544 -4.583581,10.5535 -9.000917,10.5535 -3.388587,0 -8.647607,-0.62268 -14.665168,-0.62268 -6.100726,0 -8.646577,1.69163 -8.646577,3.73612 0,2.1794 2.410758,3.07193 6.246186,3.73613 0,0 11.993596,2.22092 11.993596,2.22092 12.30533,2.2728 17.605905,9.25624 17.605905,17.84933 0,9.97233 -6.505971,17.22663 -19.746518,18.64844 -9.58281,1.02744 -23.446824,-0.17642 -30.047365,-0.93403 -0.228605,-1.05856 -0.405267,-2.39735 -0.405267,-3.46628 0,-8.68649 4.687495,-10.68844 9.104831,-10.67805 4.593977,0 11.806553,0.79807 17.159084,0.79807 5.924057,0 7.711367,-2.00195 7.711367,-3.91152 0,-2.50113 -2.358822,-3.51819 -6.952798,-4.41069 0,0 -12.575496,-2.40774 -12.575496,-2.40774 -10.434918,-2.00297 -16.005665,-9.20434 -16.005665,-16.8634 0,-9.30917 6.599482,-17.09173 19.569862,-18.51354 m 74.53027,6.71465 c 4.24068,-4.58713 8.29328,-7.25431 15.6004,-7.25431 2.35883,0 5.61232,0.5708 6.95279,0.97554 0,0 20.64121,33.56078 20.64121,33.56078 0,0 10.51699,-24.78193 10.51699,-24.78193 3.56524,-8.55052 9.18796,-9.39116 13.37668,-9.30814 2.41078,0.0415 5.39411,0.84063 6.73457,1.55673 0,0 -32.4997,72.36249 -32.4997,72.36249 -2.45235,5.43815 -5.7578,7.75246 -11.81695,7.61754 -3.52368,-0.0934 -6.32931,-0.9444 -7.71135,-1.65012 0,0 13.7705,-28.97467 13.7705,-28.97467 0,0 -22.59476,-35.42885 -22.59476,-35.42885 0,0 -13.77049,14.60099 -13.77049,14.60099 0,0 19.43476,29.24452 19.43476,29.24452 -1.60024,0.75759 -5.08237,1.73314 -9.27108,1.73314 -6.37088,0 -10.29877,-2.35584 -13.2821,-6.98447 0,0 -16.14074,-25.37347 -16.14074,-25.37347 0,0 20.05927,-21.89577 20.05927,-21.89577 M 84.582951,179.06834 c 0,-5.38521 1.829902,-10.98939 12.346898,-10.98939 1.331125,0 2.671601,0.13491 3.918541,0.40474 0,0 0,73.20313 0,73.20313 0,5.34473 -2.088646,8.41666 -12.523535,8.41666 -1.382052,0 -2.588479,-0.0934 -3.741904,-0.26983 0,0 0,-70.76531 0,-70.76531"
     style="fill:#000000;stroke:none;stroke-width:1.0666678" />
  <g
     style="fill:#000000;stroke-width:2.13359904"
     transform="matrix(0.46898819,0,0,0.4683952,300.08209,70.395356)"
     id="g865">
    <path
       inkscape:connector-curvature="0"
       style="fill:#000000;stroke-width:2.13359904"
       d="m -98.853917,481.83945 2.06,0.215 c 4.454,0.311 8.462,1.054 11.685,4.502 2.658,2.859 3.602,6.322 4.516,9.99 l 2.821,12.102 7.064,30.114 4.028,16.824 7.145,-34.831 4.425,-21.551 c 0.91,-4.56 1.873,-9.818 5.283,-13.256 5.88,-5.924 17.389,-5.048 22.973,0.862 2.84,3.007 3.908,6.863 3.865,10.919 -0.043,3.448 -1.27,7.284 -2.107,10.627 l -4.574,17.71 -15.277,59.337 c -2.165,8.654 -3.66,18.553 -13.764,21.14 -1.514,0.392 -3.161,0.684 -4.722,0.703 -3.257,0.039 -6.274,0.177 -9.444,-0.718 -11.092,-3.127 -12.069,-15.23 -14.43,-24.669 l -6.93,-28.337 -4.324,-17.418 -2.472003,10.038 -6.642,27.154 -4.358,17.662 c -1.662,6.427 -3.238,11.72 -9.847,14.722 -3.893,1.763 -7.111,1.571 -11.22,1.566 a 19.348,19.348 0 0 1 -5.316,-0.718 c -1.413,-0.398 -2.879,-0.881 -4.129,-1.672 -6.498,-4.109 -7.576,-11.714 -9.338,-18.567 l -15.13,-58.748 -4.865,-19.185 c -0.9,-3.587 -2.385,-7.758 -2.241,-11.513 0.144,-3.625 1.37,-7.342 3.879,-10.024 5.124,-5.493 15.665,-6.566 21.79,-2.246 6.006,4.239 6.796,13.778 8.147,20.536 l 6.79,33.356 2.127,10.627 c 0.393,1.973 0.685,4.406 1.533,6.197 l 3.577,-15.641 6.561,-28.342 3.333,-14.463 c 0.68,-2.787 1.145,-5.747 2.606,-8.266 2.974,-5.124 7.399,-6.14 12.854,-6.523 z"
       id="path857" />
    <path
       inkscape:connector-curvature="0"
       style="fill:#000000;stroke-width:2.13359904"
       d="m 46.381083,481.83945 a 30.938,30.938 0 0 1 6.79,1.053 c 6.083,1.95 8.07,5.364 11.231,10.407 l 5.316,8.563 21.59,34.831 6.934,11.216 c 1.001,1.595 2.322997,4.09 3.639997,5.316 v -52.25 c 0,-5.291 -0.244,-9.807 3.482,-14.141 5.474,-6.37 18.725,-6.61 24.505,-0.594 3.334,3.467 4.181,8.64 4.186,13.26 v 87.378 l -0.268,2.95 c -0.575,8.132 -3.544,14.152 -11.834,16.618 -1.542,0.455 -3.113,0.781 -4.727,0.8 -4.78,0.058 -9.248,0.302 -13.577,-2.164 -3.338,-1.902 -5.353997,-5.288 -7.326997,-8.463 l -6.547,-10.33 -20.943,-33.064 -10.057,-15.646 v 54.61 c -0.048,4.11 -1.604,8.688 -4.717,11.46 -5.675,5.048 -17.461,4.91 -23.017,-0.287 -3.256,-3.05 -4.434,-8.031 -4.44,-12.356 v -90.322 c 0.01,-4.468 1.007,-9.497 3.933,-12.993 3.558,-4.248 8.563,-5.273 13.778,-5.637 z"
       id="path855" />
    <path
       inkscape:connector-curvature="0"
       style="fill:#000000;stroke-width:2.13359904"
       d="m -0.26491717,481.90145 h 1.183 c 2.60999997,0.177 5.30599997,0.599 7.67699997,1.767 5.2870002,2.605 8.2560002,7.96 8.2660002,13.764 v 94.757 c -0.105,8.764 -7.0600002,15.038 -15.6460002,15.057 -3.448,0.005 -4.952,0.043 -8.266,-1.312 -6.5369998,-2.672 -9.1379998,-9.166 -9.1469998,-15.809 v -91.51 c 0.076,-6.743 3.007,-12.672 9.4439998,-15.392 2.504,-1.054 3.98,-0.968 6.49400003,-1.322 z"
       id="path853" />
    <path
       inkscape:connector-curvature="0"
       style="fill:#000000;stroke-width:2.13359904"
       d="m -98.853917,531.38245 0.297,0.292 v -0.292 z"
       id="path851" />
  </g>
  <path
     inkscape:connector-curvature="0"
     style="fill:#000000;stroke:none;stroke-width:1px;stroke-linecap:butt;stroke-linejoin:miter;stroke-opacity:1"
     d="m 171.47963,310.38288 v 29.5773 h 5.65632 v -18.35814 l 14.86128,18.35814 h 4.93214 v -29.5773 h -5.64599 v 18.44182 l -14.73149,-18.44182 z"
     id="path905" />
  <path
     inkscape:connector-curvature="0"
     id="path919"
     d="m 149.64287,309.79968 a 15.594886,15.450567 0 0 0 -15.5939,15.45167 15.594886,15.450567 0 0 0 15.5939,15.4503 15.594886,15.450567 0 0 0 15.59529,-15.4503 15.594886,15.450567 0 0 0 -15.59529,-15.45167 z m 0.12544,5.80952 a 8.8578958,9.6411545 0 0 1 8.85764,9.64215 8.8578958,9.6411545 0 0 1 -8.85764,9.64077 8.8578958,9.6411545 0 0 1 -8.85764,-9.64077 8.8578958,9.6411545 0 0 1 8.85764,-9.64215 z"
     style="opacity:1;fill:#000000;fill-opacity:0.93719806;stroke:none;stroke-width:5;stroke-linecap:round;stroke-linejoin:round;stroke-miterlimit:4;stroke-dasharray:none;stroke-opacity:1" />
</svg>

<svg xmlns="http://www.w3.org/2000/svg" width="512" height="512">
    <path d="M209.195 158.125v122.06h279.057c7.091 0 12.8-5.7 12.8-12.783v-96.494a12.764 12.764 0 00-12.8-12.783H209.195zm251.99 23.904c11.348-.27 21.936 5.06 21.936 5.06l-3.85 11.356s-7.841-3.367-14.904-3.744c-4.981-.266-12.96.73-13.914 5.621-2.134 10.937 14.188 10.412 23.367 15.471 3.427 1.888 6.39 3.664 9.24 7.57 2.263 3.101 2.948 9.025 2.31 13.201-2.3 15.037-16.397 19.24-26.364 18.868-6.699-.25-13.425-.318-22.352-5.123l2.776-12.788s6.825 4.516 18.267 5.176c5.407.312 13.937-.168 14.31-7.822.272-5.564-7.79-7.727-15.581-10.656-4.478-1.684-8.973-3.661-12.072-6.102-6.653-5.238-8.404-14.857-6.268-22.265 1.09-3.783 3.045-6.619 5.826-8.979 3.356-2.848 8.47-4.634 17.274-4.844zm-236.242 1.838h11.727l34.062 43.713v-43.713h13.057v70.108h-11.404L238.02 210.46v43.514h-13.078v-70.108zm68.487 0h46.75v11.35h-31.985v16.449h26.22v12.951h-26.22v17.961h31.993v11.397H293.43v-70.108zm53.886 0h13.502s2.193 17.695 3.717 26.475c1.644 9.47 5.848 28.236 5.848 28.236l11.392-52.238h16.176l11.674 52.658s4.322-20.975 6.145-31.525c1.354-7.841 3.558-23.606 3.558-23.606h13.238s-3.188 21.8-5.43 32.553c-2.64 12.663-9.279 37.555-9.279 37.555h-16.53s-4.133-16.884-6.003-25.371c-1.933-8.774-5.39-26.409-5.39-26.409s-3.43 18.004-5.428 26.946c-1.86 8.319-6.106 24.834-6.106 24.834h-16.455s-6.97-27.648-9.795-41.616c-1.91-9.441-4.834-28.492-4.834-28.492z" stroke="#000" stroke-width="2" stroke-linecap="round" stroke-linejoin="round"/>
    <path d="M209.196 280.186V158.124H23.746a12.763 12.763 0 00-12.798 12.784v96.495a12.763 12.763 0 0012.798 12.783z" fill="none" stroke="#000" stroke-width="2" stroke-linecap="round" stroke-linejoin="round"/>
    <path d="M47.157 189.27c2.765-.3 5.707-.425 8.637-.436 7.483 0 14.956.789 19.664 1.36.219 1.12.354 2.18.354 3.341 0 8.686-4.584 10.554-9.001 10.554-3.389 0-8.648-.623-14.665-.623-6.101 0-8.647 1.692-8.647 3.736 0 2.18 2.41 3.072 6.246 3.737l11.994 2.22c12.305 2.273 17.606 9.257 17.606 17.85 0 9.972-6.506 17.226-19.747 18.648-9.583 1.028-23.447-.176-30.047-.934-.229-1.058-.405-2.397-.405-3.466 0-8.687 4.687-10.689 9.104-10.678 4.594 0 11.807.798 17.16.798 5.924 0 7.71-2.002 7.71-3.912 0-2.5-2.358-3.518-6.952-4.41l-12.575-2.408c-10.435-2.003-16.006-9.204-16.006-16.863 0-9.31 6.6-17.092 19.57-18.514m74.53 6.715c4.24-4.587 8.293-7.255 15.6-7.255 2.36 0 5.613.571 6.953.976l20.641 33.56 10.517-24.781c3.566-8.55 9.188-9.391 13.377-9.308 2.41.041 5.394.84 6.735 1.556l-32.5 72.363c-2.452 5.438-5.758 7.752-11.817 7.617-3.524-.093-6.33-.944-7.711-1.65l13.77-28.974-22.595-35.43-13.77 14.602 19.435 29.244c-1.6.758-5.083 1.733-9.271 1.733-6.371 0-10.3-2.355-13.283-6.984l-16.14-25.374 20.059-21.895m-37.104-16.917c0-5.385 1.83-10.99 12.347-10.99 1.331.001 2.671.136 3.918.406v73.203c0 5.345-2.088 8.416-12.523 8.416-1.382 0-2.589-.093-3.742-.27v-70.765" stroke-width="1.067"/>
    <g stroke-width="2.134">
        <path d="M253.72 296.087l.967.1c2.089.146 3.968.494 5.48 2.11 1.247 1.338 1.69 2.96 2.118 4.678l1.323 5.669 3.313 14.105 1.889 7.88 3.35-16.314 2.076-10.095c.427-2.136.879-4.598 2.478-6.209 2.758-2.774 8.155-2.364 10.774.404 1.332 1.408 1.833 3.215 1.813 5.114-.02 1.615-.596 3.412-.989 4.978l-2.145 8.295-7.164 27.794c-1.016 4.053-1.717 8.69-6.456 9.901-.71.184-1.482.32-2.214.33-1.528.018-2.943.083-4.43-.337-5.201-1.464-5.66-7.133-6.767-11.554l-3.25-13.273-2.028-8.159-1.16 4.702-3.114 12.719-2.044 8.272c-.78 3.01-1.519 5.49-4.618 6.896-1.826.826-3.335.736-5.262.734a9.074 9.063 0 01-2.493-.337c-.663-.186-1.35-.412-1.937-.783-3.047-1.924-3.553-5.487-4.38-8.696l-7.095-27.518-2.282-8.986c-.422-1.68-1.118-3.634-1.05-5.393.067-1.697.642-3.439 1.819-4.695 2.403-2.573 7.346-3.075 10.219-1.052 2.817 1.986 3.187 6.454 3.82 9.62l3.185 15.623.998 4.978c.184.924.32 2.063.719 2.902l1.677-7.326 3.077-13.275 1.563-6.775c.32-1.305.537-2.691 1.223-3.871 1.394-2.4 3.47-2.876 6.028-3.056zm68.114 0a14.51 14.491 0 013.185.493c2.853.913 3.784 2.512 5.267 4.874l2.493 4.011 10.126 16.315 3.251 5.254c.47.747 1.09 1.915 1.708 2.49V305.05c0-2.478-.115-4.594 1.633-6.624 2.567-2.983 8.781-3.096 11.492-.278 1.564 1.624 1.961 4.047 1.963 6.211v40.927l-.125 1.382c-.27 3.81-1.662 6.629-5.55 7.784-.724.213-1.46.366-2.217.375-2.242.027-4.337.141-6.368-1.014-1.565-.89-2.51-2.477-3.436-3.964l-3.07-4.838-9.822-15.487-4.717-7.329v25.58c-.023 1.924-.752 4.068-2.212 5.367-2.662 2.364-8.19 2.3-10.795-.135-1.527-1.428-2.08-3.761-2.082-5.787v-42.306c.004-2.093.472-4.449 1.844-6.086 1.669-1.99 4.016-2.47 6.462-2.64zm-21.876.029h.555c1.224.083 2.488.28 3.6.827 2.48 1.22 3.872 3.729 3.877 6.447v44.384c-.05 4.105-3.311 7.044-7.338 7.053-1.617.002-2.322.02-3.877-.615-3.065-1.251-4.285-4.293-4.29-7.405v-42.863c.036-3.158 1.41-5.935 4.43-7.21 1.174-.493 1.866-.453 3.045-.618z"/>
        <path d="M253.72 319.292l.14.137v-.137z"/>
    </g>
    <path d="M171.48 310.383v29.577h5.656v-18.358l14.861 18.358h4.932v-29.577h-5.646v18.442l-14.731-18.442z"/>
    <path d="M149.643 309.8a15.595 15.45 0 00-15.594 15.451 15.595 15.45 0 0015.594 15.45 15.595 15.45 0 0015.595-15.45 15.595 15.45 0 00-15.595-15.451zm.125 5.81a8.858 9.641 0 018.858 9.641 8.858 9.641 0 01-8.858 9.641 8.858 9.641 0 01-8.857-9.64 8.858 9.641 0 018.857-9.643z" fill-opacity=".937" stroke-width="5" stroke-linecap="round" stroke-linejoin="round"/>
</svg>
